packages/kronos-fna-icons/src/notepad.svg

<?xml version="1.0" encoding="UTF-8"?>
<svg width="15px" height="20px" viewBox="0 0 15 20" version="1.1" xmlns="http://www.w3.org/2000/svg" xmlns:xlink="http://www.w3.org/1999/xlink">
    <!-- Generator: Sketch 50.2 (55047) - http://www.bohemiancoding.com/sketch -->
    <title>notepad</title>
    <desc>Created with Sketch.</desc>
    <defs></defs>
    <g id="notepad" stroke="none" stroke-width="1" fill="none" fill-rule="evenodd">
        <path d="M13.6363636,20 L1.36363636,20 C0.610227273,20 0,19.4254094 0,18.7156967 L0,3.21075829 C0,2.50168903 0.610227273,1.92709841 1.36363636,1.92709841 L4.77272727,1.92709841 L4.77272727,3.26480713 L2.04545455,3.26480713 C1.66909091,3.26480713 1.36363636,3.55178072 1.36363636,3.90695879 L1.36363636,18.073545 C1.36363636,18.4293665 1.66909091,18.7156967 2.04545455,18.7156967 L12.9545455,18.7156967 C13.3315909,18.7156967 13.6363636,18.4293665 13.6363636,18.073545 L13.6363636,3.90695879 C13.6363636,3.55178072 13.3315909,3.26480713 12.9545455,3.26480713 L10.2272727,3.26480713 L10.2272727,1.92709841 L13.6363636,1.92709841 C14.3890909,1.92709841 15,2.50233246 15,3.21075829 L15,18.7156967 C15,19.4254094 14.3890909,20 13.6363636,20 L13.6363636,20 Z M4.77272727,7.11707364 L12.2727273,7.11707364 L12.2727273,7.7592253 L4.77272727,7.7592253 L4.77272727,7.11707364 L4.77272727,7.11707364 Z M4.77272727,9.04352862 L12.2727273,9.04352862 L12.2727273,9.68568028 L4.77272727,9.68568028 L4.77272727,9.04352862 L4.77272727,9.04352862 Z M4.77272727,10.970627 L12.2727273,10.970627 L12.2727273,11.6127787 L4.77272727,11.6127787 L4.77272727,10.970627 L4.77272727,10.970627 Z M4.77272727,12.897082 L12.2727273,12.897082 L12.2727273,13.5392337 L4.77272727,13.5392337 L4.77272727,12.897082 L4.77272727,12.897082 Z M12.2727273,17.3908567 L4.77272727,17.3908567 L4.77272727,16.749992 L12.2727273,16.749992 L12.2727273,17.3908567 L12.2727273,17.3908567 Z M4.77272727,14.823537 L12.2727273,14.823537 L12.2727273,15.4656886 L4.77272727,15.4656886 L4.77272727,14.823537 L4.77272727,14.823537 Z M2.72727273,7.10420487 L3.40909091,7.10420487 L3.40909091,7.74635653 L2.72727273,7.74635653 L2.72727273,7.10420487 L2.72727273,7.10420487 Z M2.72727273,9.03065985 L3.40909091,9.03065985 L3.40909091,9.6728115 L2.72727273,9.6728115 L2.72727273,9.03065985 L2.72727273,9.03065985 Z M2.72727273,10.9564714 L3.40909091,10.9564714 L3.40909091,11.598623 L2.72727273,11.598623 L2.72727273,10.9564714 L2.72727273,10.9564714 Z M2.72727273,12.8829264 L3.40909091,12.8829264 L3.40909091,13.525078 L2.72727273,13.525078 L2.72727273,12.8829264 L2.72727273,12.8829264 Z M3.40909091,17.3786314 L2.72727273,17.3786314 L2.72727273,16.7364797 L3.40909091,16.7364797 L3.40909091,17.3786314 L3.40909091,17.3786314 Z M2.72727273,14.8100248 L3.40909091,14.8100248 L3.40909091,15.4521764 L2.72727273,15.4521764 L2.72727273,14.8100248 L2.72727273,14.8100248 Z M11.5909091,3.94620854 C11.9679545,3.94620854 12.2727273,4.23382556 12.2727273,4.58900364 L12.2727273,5.83277032 L2.72727273,5.83277032 L2.72727273,4.58900364 C2.72727273,4.234469 3.03204545,3.94620854 3.40909091,3.94620854 L5.45454545,3.94620854 C5.45454545,3.94620854 5.46272727,3.03316926 5.46272727,1.98951195 C5.46272727,0.905961458 6.34909091,5.32907052e-14 7.5,5.32907052e-14 C8.65090909,5.32907052e-14 9.56795455,0.952289033 9.56795455,1.99594634 C9.56795455,3.12003346 9.54545455,3.94620854 9.54545455,3.94620854 L11.5909091,3.94620854 L11.5909091,3.94620854 Z M7.5,1.92709841 C7.12295455,1.92709841 6.81818182,2.214072 6.81818182,2.56860663 C6.81818182,2.92378471 7.12295455,3.21075829 7.5,3.21075829 C7.87704545,3.21075829 8.18181818,2.92378471 8.18181818,2.56860663 C8.18181818,2.214072 7.87704545,1.92709841 7.5,1.92709841 L7.5,1.92709841 Z" id="Shape" fill="#000000"></path>
    </g>
</svg>

<svg version="1.1" xmlns="http://www.w3.org/2000/svg" width="15" height="20" viewBox="0 0 15 20">
<title>notepad</title>
<path d="M13.636 20h-12.273c-0.753 0-1.364-0.575-1.364-1.284v-15.505c0-0.709 0.61-1.284 1.364-1.284h3.409v1.338h-2.727c-0.376 0-0.682 0.287-0.682 0.642v14.167c0 0.356 0.305 0.642 0.682 0.642h10.909c0.377 0 0.682-0.286 0.682-0.642v-14.167c0-0.355-0.305-0.642-0.682-0.642h-2.727v-1.338h3.409c0.753 0 1.364 0.575 1.364 1.284v15.505c0 0.71-0.611 1.284-1.364 1.284v0zM4.773 7.117h7.5v0.642h-7.5v-0.642zM4.773 9.044h7.5v0.642h-7.5v-0.642zM4.773 10.971h7.5v0.642h-7.5v-0.642zM4.773 12.897h7.5v0.642h-7.5v-0.642zM12.273 17.391h-7.5v-0.641h7.5v0.641zM4.773 14.824h7.5v0.642h-7.5v-0.642zM2.727 7.104h0.682v0.642h-0.682v-0.642zM2.727 9.031h0.682v0.642h-0.682v-0.642zM2.727 10.956h0.682v0.642h-0.682v-0.642zM2.727 12.883h0.682v0.642h-0.682v-0.642zM3.409 17.379h-0.682v-0.642h0.682v0.642zM2.727 14.81h0.682v0.642h-0.682v-0.642zM11.591 3.946c0.377 0 0.682 0.288 0.682 0.643v1.244h-9.545v-1.244c0-0.355 0.305-0.643 0.682-0.643h2.045c0 0 0.008-0.913 0.008-1.957 0-1.084 0.886-1.99 2.037-1.99s2.068 0.952 2.068 1.996c0 1.124-0.022 1.95-0.022 1.95h2.045zM7.5 1.927c-0.377 0-0.682 0.287-0.682 0.642s0.305 0.642 0.682 0.642 0.682-0.287 0.682-0.642c0-0.355-0.305-0.642-0.682-0.642v0z"></path>
</svg>
